images/development-services/oxi-logo.svg

<svg width="122" height="44" viewBox="0 0 122 44" fill="none" xmlns="http://www.w3.org/2000/svg">
<g clip-path="url(#clip0_11546_146453)">
<path d="M20.8648 0.115842C18.3331 0.326874 15.5036 1.10769 13.1314 2.26836C6.3554 5.56044 1.78132 11.9547 0.845227 19.4147C0.685666 20.7125 0.717578 23.5404 0.898414 24.9543C2.05789 33.7225 8.68499 41.1404 17.28 43.3034C19.3863 43.831 20.301 43.9364 22.8647 43.9364C25.4283 43.9364 26.343 43.831 28.4493 43.3034C37.0444 41.1404 43.6714 33.7225 44.8308 24.9543C45.0118 23.5404 45.0437 20.7125 44.8841 19.4147C43.7033 9.971 36.6189 2.34223 27.3111 0.485148C25.1411 0.0419815 23.1306 -0.0635342 20.8648 0.115842ZM25.056 9.02136C29.2578 9.74941 32.8638 12.419 34.7678 16.207C35.7253 18.1168 36.1082 19.7734 36.0976 22.0525C36.0976 23.7408 36.0125 24.3317 35.5657 25.83C34.1615 30.5043 30.1619 34.0496 25.2049 34.9993C24.0028 35.2314 21.7264 35.2314 20.5244 34.9993C15.5674 34.0496 11.5677 30.5043 10.1636 25.83C9.71683 24.3317 9.63172 23.7408 9.63172 22.0525C9.62108 20.2904 9.77001 19.3303 10.27 17.8319C11.3124 14.7298 13.7058 11.9547 16.695 10.3509C17.6523 9.84437 19.4287 9.24293 20.5882 9.03191C21.7264 8.83142 23.8964 8.82088 25.056 9.02136Z" fill="black"/>
<path d="M53.9263 3.14461V6.27842L60.7662 13.0631L67.5955 19.8372H70.7122H73.8183V16.6928V13.559L66.9784 6.77434L60.1493 0.000244141H57.0324H53.9263V3.14461Z" fill="black"/>
<path d="M85.115 6.7849L78.2856 13.559V16.7034V19.8372H81.4025H84.5086L91.3485 13.0525L98.1777 6.27842V3.13405V0.000244141H95.061H91.9548L85.115 6.7849Z" fill="black"/>
<path d="M112.432 21.895V43.5784H116.846H121.261V21.895V0.211548H116.846H112.432V21.895Z" fill="black"/>
<path d="M60.7024 31.0004L53.9263 37.7216V40.866V43.9999H57.0431H60.1493L66.989 37.2152L73.8183 30.4411V27.3495V24.2684H70.6484H67.489L60.7024 31.0004Z" fill="black"/>
<path d="M78.2856 27.36V30.4411L85.1255 37.2257L91.9548 43.9999H95.0715H98.1777V40.8555V37.7216L91.391 30.9898L84.6149 24.2684H81.445H78.2856V27.36Z" fill="black"/>
</g>
<defs>
<clipPath id="clip0_11546_146453">
<rect width="120.522" height="44" fill="white" transform="translate(0.739258)"/>
</clipPath>
</defs>
</svg>

<svg width="122" height="44" fill="none" xmlns="http://www.w3.org/2000/svg"><g clip-path="url(#a)" fill="#000"><path d="M20.865.116c-2.532.21-5.361.992-7.734 2.152C6.355 5.56 1.781 11.955.845 19.415c-.16 1.297-.127 4.125.053 5.54 1.16 8.767 7.787 16.185 16.382 18.348 2.106.528 3.021.633 5.585.633 2.563 0 3.478-.105 5.584-.633 8.595-2.163 15.222-9.58 16.382-18.349.18-1.414.213-4.242.053-5.54C43.704 9.972 36.62 2.343 27.311.486c-2.17-.443-4.18-.549-6.446-.37Zm4.191 8.905a13.431 13.431 0 0 1 9.712 7.186c.957 1.91 1.34 3.566 1.33 5.845 0 1.689-.085 2.28-.532 3.778-1.405 4.674-5.404 8.22-10.361 9.17-1.202.231-3.479.231-4.68 0-4.958-.95-8.957-4.496-10.361-9.17-.447-1.498-.532-2.09-.532-3.777-.01-1.763.138-2.723.638-4.221 1.042-3.102 3.436-5.877 6.425-7.481.957-.507 2.734-1.108 3.893-1.32 1.138-.2 3.308-.21 4.468-.01ZM53.926 3.145v3.133l6.84 6.785 6.83 6.774H73.817V13.56l-6.84-6.785L60.15 0h-6.223v3.145ZM85.115 6.785l-6.83 6.774V19.837h6.224l6.84-6.784 6.829-6.775V0h-6.223l-6.84 6.785ZM112.432 21.895v21.683h8.829V.212h-8.829v21.683ZM60.702 31l-6.776 6.722V44h6.223l6.84-6.785 6.83-6.774v-6.173h-6.33L60.702 31ZM78.286 27.36v3.081l6.84 6.785L91.954 44h6.223V37.722L91.39 30.99l-6.776-6.722h-6.33v3.092Z"/></g><defs><clipPath id="a"><path fill="#fff" transform="translate(.74)" d="M0 0h120.522v44H0z"/></clipPath></defs></svg>
